!!!OTL: ERWACHT IST DER MORGEN
!!!ARE: Europa, Mitteleuropa, Deutschland
!!!SCT: F0990
!!!YEM: Copyright 1995, estate of Helmut Schaffrath.
**kern
*ICvox
*Ivox
*M2/4
*k[f#]
*G:
{8d
=1
4g
8g
8a
=2
4b
8g}
{8a
=3
8b
8dd
8cc
8b
=4
4a
8r}
{8a
=5
4b
8b
8cc#
=6
8dd
8ee
8ff#}
{8ee
=7
4dd
4cc#
=8
4dd
8r}
{8d
=9
4g
8g
8a
=10
4b
8g}
{8a
=11
8b
8dd
8cc
8b
=12
4a
8r}
{8a
=13
4b
8b
8cc#
=14
8dd
8ee
8ff#}
{8ee
=15
4dd
4cc#
=16
4dd
8r}
{8dd
=17
8dd
8a
8a
8a
=18
4b
8g}
{8b
=19
8dd
8a
8a
8a
=20
4b
8r}
{8b
=21
4b
8cc
8dd
=22
8ee
8gg
8ee}
{8cc
=23
8b
8dd
8cc
8a
=24
4g
8r}
{8b
=25
8dd
8a
8a
8a
=26
4b
8g}
{8b
=27
8dd
8a
8a
8a
=28
4b
8r}
{8b
=29
4b
8cc
8dd
=30
8ee
8gg
8ee}
{8cc
=31
8b
8dd
8cc
8a
=32
4g
8r}
==
!!!AGN: Natur -, Tageszeiten - Lied, Morgen
!!!ONB: ESAC (Essen Associative Code) Database: FINK
!!!AMT: simple duple
!!!AIN: vox
!!!EED: Helmut Schaffrath
!!!EEV: 1.0
*-
